svgs/icons/sm/estimated.svg

<svg xmlns="http://www.w3.org/2000/svg" viewBox="0 0 16 16" enable-background="new 0 0 16 16"><path fill="#34363D" d="M13.6 9l-4.2-1 4.3-1c1.3-.3 2-1.8 1.3-3s-2.3-1.3-3.2-.4l-3 3.2 1.2-4.2c.3-1.3-.7-2.6-2-2.6s-2.3 1.3-1.9 2.6l1.2 4.2-3-3.2c-1-.9-2.6-.8-3.2.4-.7 1.2-.1 2.6 1.3 2.9l4.3 1-4.3 1.1c-1.3.3-2 1.8-1.3 3s2.3 1.3 3.2.4l3-3.2-1.2 4.2c-.4 1.3.6 2.6 1.9 2.6 1.3 0 2.3-1.3 1.9-2.6l-1.2-4.2 3 3.2c.9 1 2.5.8 3.2-.4.7-1.2 0-2.6-1.3-3zm-5.6-1z"/></svg>

<svg xmlns="http://www.w3.org/2000/svg" viewBox="0 0 16 16"><path fill="#34363D" d="M13.6 9L9.4 8l4.3-1c1.3-.3 2-1.8 1.3-3s-2.3-1.3-3.2-.4l-3 3.2L10 2.6C10.3 1.3 9.3 0 8 0S5.7 1.3 6.1 2.6l1.2 4.2-3-3.2c-1-.9-2.6-.8-3.2.4C.4 5.2 1 6.6 2.4 6.9l4.3 1L2.4 9c-1.3.3-2 1.8-1.3 3s2.3 1.3 3.2.4l3-3.2-1.2 4.2C5.7 14.7 6.7 16 8 16c1.3 0 2.3-1.3 1.9-2.6L8.7 9.2l3 3.2c.9 1 2.5.8 3.2-.4.7-1.2 0-2.6-1.3-3zM8 8z"/></svg>
